other/app-center-colour.svg

<svg xmlns="http://www.w3.org/2000/svg" id="ICONS" version="1.1" width="400" height="400"><defs id="defs3752"><style id="style3750">.cls-2{fill:#cb2e6d}</style></defs><g id="iconBg" transform="matrix(3.7554 0 0 3.7554 -566.1 -66.633)"><path class="cls-2" d="M230.4 18.2v90.7l-79.2-11.77 79.2 26.67 26.4-11V29.18z" id="path3758" fill="#cb2e6d"/><path class="cls-2" d="M202.68 42.15l-17.16 11.42V36.78h-.43L176 34l-18.2 15v7l11.82 7.69-11.82 7.65v7l18.25 15 9.47-2.83V73.74l17.16 11.42 14.52-4.47V46.62zM163.47 52L175 43.9v14.22zm11.63 17.2v14.21l-11.5-8.08zm28.9 3.72l-18.68-9.27L204 54.38z" id="path3760" fill="#cb2e6d"/></g></svg>

<?xml version="1.0" encoding="UTF-8" standalone="no"?>
<svg
   xmlns:dc="http://purl.org/dc/elements/1.1/"
   xmlns:cc="http://creativecommons.org/ns#"
   xmlns:rdf="http://www.w3.org/1999/02/22-rdf-syntax-ns#"
   xmlns:svg="http://www.w3.org/2000/svg"
   xmlns="http://www.w3.org/2000/svg"
   xmlns:sodipodi="http://sodipodi.sourceforge.net/DTD/sodipodi-0.dtd"
   xmlns:inkscape="http://www.inkscape.org/namespaces/inkscape"
   id="ICONS"
   viewBox="0 0 400 400"
   version="1.1"
   sodipodi:docname="app-center-colour.svg"
   width="400"
   height="400"
   inkscape:version="0.92.2 (5c3e80d, 2017-08-06)">
  <metadata
     id="metadata3766">
    <rdf:RDF>
      <cc:Work
         rdf:about="">
        <dc:format>image/svg+xml</dc:format>
        <dc:type
           rdf:resource="http://purl.org/dc/dcmitype/StillImage" />
        <dc:title>vs-mobile-center</dc:title>
      </cc:Work>
    </rdf:RDF>
  </metadata>
  <sodipodi:namedview
     pagecolor="#ffffff"
     bordercolor="#666666"
     borderopacity="1"
     objecttolerance="10"
     gridtolerance="10"
     guidetolerance="10"
     inkscape:pageopacity="0"
     inkscape:pageshadow="2"
     inkscape:window-width="1329"
     inkscape:window-height="998"
     id="namedview3764"
     showgrid="false"
     inkscape:zoom="1.495"
     inkscape:cx="42.692984"
     inkscape:cy="166.663"
     inkscape:window-x="858"
     inkscape:window-y="62"
     inkscape:window-maximized="0"
     inkscape:current-layer="ICONS" />
  <defs
     id="defs3752">
    <style
       id="style3750">
      .cls-1 {
        fill: #fff;
      }

      .cls-2 {
        fill: #cb2e6d;
      }
    </style>
  </defs>
  <title
     id="title3754">vs-mobile-center</title>
  <g
     id="iconBg"
     transform="matrix(3.7553968,0,0,3.7553968,-566.10095,-66.633173)">
    <path
       class="cls-2"
       d="m 230.4,18.2 v 90.7 l -79.2,-11.77 79.2,26.67 26.4,-11 V 29.18 Z"
       id="path3758"
       inkscape:connector-curvature="0"
       style="fill:#cb2e6d" />
    <path
       class="cls-2"
       d="M 202.68,42.15 185.52,53.57 V 36.78 h -0.43 v 0 L 176,34 157.8,49 v 7 l 11.82,7.69 -11.82,7.65 v 7 l 18.25,15 9.47,-2.83 V 73.74 l 17.16,11.42 14.52,-4.47 V 46.62 Z M 163.47,52 175,43.9 V 58.12 Z M 175.1,69.2 V 83.41 L 163.6,75.33 Z M 204,72.92 185.32,63.65 204,54.38 Z"
       id="path3760"
       inkscape:connector-curvature="0"
       style="fill:#cb2e6d" />
  </g>
</svg>
